X:319
T:Cape Breton Fiddlers' Welcome to the Shetland Isles, The
O:ireland
C:Willie Hunter, Shetland
R:reel
Z:id:hn-reel-330
M:C|
K:A
EC~C2 DCB,C|A,B,CE FECE|FBBA BcBA|Bffe ~f3g|
ac~c2 eA~A2|cBAF EC~C2|FGAF Eaaf|1 ecBc A2AF:|2 ecBc A2fg||
|:ae~e2 efed|ce~e2 fece|bffe fgfe|defd B2fg|
ae~e2 efed|ce~e2 fece|1 fdge afed|cdBc A2fg:|2 fdec dBcA|Bagf eAGF||
